X:76676315238315
T:2-8-3-8-2-2-6-10-9-4-4-10-6-4-4-3
%%setfont-1 Courier-Bold 8
T:$1K.516f::96:60:128:53:105:122:36:123:120:139:15:82:76:58:145:83::$0
T:$1Perm. No.: 76676315238315$0
M:3/8
L:1/8
Q:1/8=111
%%staves [1 2]
V:1 clef=treble
V:2 clef=bass
K:C
%1
[V:1]|: ecG |\
[V:2]|: C,2z |\
%2
[V:1] gf/e/d/c/ |\
[V:2] [E,2C,2]z |\
%3
[V:1] Bdg |\
[V:2] G,,2z |\
%4
[V:1] [ec][e/c/][f/d/][ge] |\
[V:2] C,2z |\
%5
[V:1] ^fa/f/d/f/ |\
[V:2] C,2z |\
%6
[V:1] g/^f/g/b/d |\
[V:2] [D,B,,][D,B,,][G,B,,] |\
%7
[V:1] A/e/d/g/^f/a/ \
[V:2] C,D,D,, \
%8a
[V:1]|1 [g2d2B2G2]z :|2
[V:2]|1 G,,G,/=F,/E,/D,/ :|2
%8b
[V:1] [g2d2B2G2]z |:\
[V:2] G,,B,/G,/^F,/E,/ |:\
%9
[V:1] d'a/^f/d/A/ |\
[V:2] [^F,2D,2][F,C,] |\
%10
[V:1] g/b/g/b/d |\
[V:2] B,,2z |\
%11
[V:1] eg/e/c |\
[V:2] [G,2C,2][E,C,] |\
%12
[V:1] d/B/Gg |\
[V:2] G,2 [D,B,,] & B,,2 x |\
%13
[V:1] c'/b/c'/g/e/c/ |\
[V:2] [E,2C,2][G,C,] |\
%14
[V:1] gec |\
[V:2] [E,/C,/]G,/[E,/C,/]G,/[E,/C,/]G,/ |\
%15
[V:1] d/f/A/d/B/d/ |\
[V:2] F,2G, |\
%16
[V:1] c2z :|]
[V:2] C,G,,C,, :|]
